X: 34955
T: Rocky Road To Dublin, The
R: slip jig
M: 9/8
K: Aminor
e^fe d2 B A3|E2 A A2 A Bcd|e^fe d2 B A2 c B2 G G2 A Bcd:|
|:e2 a a2 ^f g3|e2 a a2A Bcd|e2 a a2 ^f g2 e|1 d2 B G2 A Bcd]:|2 d2 B G2 A Bcd||
(e6 e3||

